X:1
T:Polska : Eklunda, av Viksta Losse
C:(do) apprise de Martin Coudroy  St Gervais 2008, fichier abc : Bernard Loffet
L:1/8
Q:228
M:3/4
K:C
|: [cC,,]B/c/ [eC,]c [GC,]E | [F/F,,/]E/F/G/ [A/F,/]c/A/F/ [DF,]F | [EC,,]D/E/ [FG,]F/D/ [EC,]E/C/ | \
 [D3/2D,,3/2]^F/ [G2G,2] G,2 | [cC,,]B/c/ [eC,]c [GC,]E | [F/F,,/]E/F/G/ [A/F,/]c/A/F/ [DF,]F | [EC,,]D/E/ [FG,]F/D/ [EC,]E/C/ | \
 [D/G,,/]E/D/B,/ [C2C,2] C,2 :|: [EC,,]E [FF,]F [EC,]E | [D3/2G,,3/2]B,/ [G,2G,2] G,2 | [EC,,]E [FF,]F [EC,]E | \
 [D3/2G,,3/2]^F/ [G2G,2] G,2 | [EC,,]E [FF,]F [EC,]E | [D3/2G,,3/2]B,/ [G,2G,2] G,A,/B,/ | [CC,,]D/E/ [FG,]F/D/ [EC,]E/C/ | \
 [D/G,,/]E/D/B,/ [C2C,2] C,2 :| \
W:Created with TablEdit http://www.tabledit.com/ by Bernard Loffet
